_inc/systems/logos/c16.svg

<?xml version="1.0" encoding="utf-8"?>
<svg version="1.1" viewBox="0 0 264 39" xmlns="http://www.w3.org/2000/svg" xmlns:bx="https://boxy-svg.com">
  <path id="path1922" d="M 25.16 11.122 L 41.259 11.122 L 34.211 18.544 L 25.16 18.544 L 25.16 11.122 Z" style="fill-opacity: 1; fill: rgb(255, 255, 255);" bx:origin="-1.563 -1.499"/>
  <path id="path3805" d="M 25.145 27.88 L 41.243 27.88 L 34.196 20.459 L 25.145 20.459 L 25.145 27.88 Z" style="fill-opacity: 1; fill: rgb(255, 255, 255);" bx:origin="-1.562 -2.757"/>
  <path id="path4382" d="M 24.81 0.765 L 24.81 10.115 C 23.164 9.087 21.335 8.579 19.318 8.579 C 17.394 8.579 15.608 9.066 13.964 10.048 C 12.316 11.021 11.022 12.354 10.075 14.043 C 9.129 15.723 8.655 17.534 8.655 19.458 C 8.655 21.404 9.13 23.202 10.075 24.863 C 11.022 26.519 12.321 27.834 13.976 28.804 C 15.628 29.773 17.408 30.262 19.318 30.262 C 21.316 30.262 23.148 29.77 24.809 28.794 L 24.809 38.186 C 23.025 38.729 21.195 39 19.318 39 C 15.874 39 12.659 38.123 9.681 36.368 C 6.705 34.614 4.344 32.226 2.606 29.222 C 0.868 26.217 0 22.96 0 19.459 C 0 16.865 0.502 14.367 1.511 11.965 C 2.519 9.568 3.918 7.47 5.713 5.673 C 7.503 3.877 9.559 2.484 11.871 1.492 C 14.189 0.497 16.67 0 19.318 0 C 21.148 0 22.978 0.261 24.81 0.765" style="fill-opacity: 1; fill: rgb(255, 255, 255);" bx:origin="0 0"/>
  <path id="path4340" d="M 67.663 20.898 C 67.581 23.218 67.295 24.216 66.396 25.126 C 65.087 26.468 63.409 26.823 58.006 26.823 C 53.8 26.823 52.03 26.529 50.668 25.532 C 49.333 24.596 48.897 23.098 48.897 19.436 C 48.897 16.096 49.304 14.63 50.521 13.636 C 51.826 12.553 53.627 12.232 58.265 12.232 C 62.817 12.232 64.821 12.582 66.13 13.665 C 67.234 14.543 67.603 15.63 67.684 18.234 L 62.471 18.234 C 62.296 16.656 61.284 16.125 58.265 16.125 C 54.697 16.125 54.032 16.681 54.032 19.581 C 54.032 21.399 54.322 22.102 55.251 22.484 C 55.859 22.75 56.962 22.894 58.324 22.894 C 61.34 22.894 62.211 22.484 62.443 20.9 L 67.663 20.898 L 67.663 20.898 Z" style="fill-opacity: 1; fill: rgb(255, 255, 255);" bx:origin="-2.603 -0.838"/>
  <path id="path4342" d="M 86.397 13.519 C 87.788 14.543 88.176 15.801 88.176 19.289 C 88.176 23.098 87.827 24.391 86.581 25.443 C 85.272 26.529 83.554 26.824 78.483 26.824 C 73.349 26.824 71.631 26.529 70.342 25.443 C 69.054 24.391 68.726 23.099 68.726 19.082 C 68.726 15.834 69.136 14.516 70.506 13.519 C 71.774 12.582 73.777 12.257 78.462 12.257 C 83.145 12.257 85.128 12.58 86.397 13.519 M 73.86 19.642 C 73.86 21.487 74.106 22.102 75.025 22.484 C 75.66 22.776 76.824 22.923 78.481 22.923 C 82.367 22.923 83.042 22.423 83.042 19.492 C 83.042 17.618 82.735 16.945 81.794 16.567 C 81.141 16.303 79.933 16.154 78.481 16.154 C 74.556 16.154 73.86 16.681 73.86 19.642" style="fill-opacity: 1; fill: rgb(255, 255, 255);" bx:origin="-3.534 -0.841"/>
  <path id="path4344" d="M 94.045 12.612 L 94.045 14.69 L 94.312 14.69 C 95.068 13.023 96.807 12.257 99.853 12.257 C 103.168 12.257 104.987 13.108 106.092 15.161 C 106.972 13.079 108.649 12.257 112.002 12.257 C 114.844 12.257 116.542 12.787 117.728 14.045 C 118.913 15.275 119.18 16.418 119.18 19.988 L 119.18 26.468 L 114.046 26.468 L 114.046 19.988 C 114.006 17.678 113.944 17.416 113.452 16.915 C 112.941 16.389 112.062 16.154 110.57 16.154 C 109.016 16.154 108.054 16.418 107.522 17.034 C 106.929 17.678 106.766 18.499 106.766 20.752 L 106.766 26.468 L 101.632 26.468 L 101.632 19.988 C 101.632 17.825 101.571 17.443 101.081 16.915 C 100.61 16.389 99.711 16.154 98.237 16.154 C 96.683 16.154 95.681 16.418 95.109 17.003 C 94.516 17.589 94.353 18.469 94.353 20.752 L 94.353 26.468 L 89.219 26.468 L 89.219 12.612 L 94.045 12.612 Z" style="fill-opacity: 1; fill: rgb(255, 255, 255);" bx:origin="-2.978 -0.863"/>
  <path id="path4346" d="M 125.213 12.612 L 125.213 14.69 L 125.459 14.69 C 126.215 13.023 127.953 12.257 131 12.257 C 134.315 12.257 136.134 13.108 137.239 15.161 C 138.119 13.079 139.796 12.257 143.169 12.257 C 146.012 12.257 147.689 12.787 148.875 14.045 C 150.06 15.275 150.327 16.418 150.327 19.988 L 150.327 26.468 L 145.195 26.468 L 145.195 19.988 C 145.174 17.678 145.112 17.416 144.622 16.915 C 144.09 16.389 143.23 16.154 141.717 16.154 C 140.184 16.154 139.223 16.418 138.669 17.034 C 138.078 17.678 137.914 18.499 137.914 20.752 L 137.914 26.468 L 132.78 26.468 L 132.78 19.988 C 132.78 17.825 132.718 17.443 132.228 16.915 C 131.757 16.389 130.858 16.154 129.386 16.154 C 127.851 16.154 126.828 16.418 126.256 17.003 C 125.663 17.589 125.5 18.469 125.5 20.752 L 125.5 26.468 L 120.367 26.468 L 120.367 12.612 L 125.213 12.612 Z" style="fill-opacity: 1; fill: rgb(255, 255, 255);" bx:origin="-4.018 -0.863"/>
  <path id="path4348" d="M 169.103 13.519 C 170.492 14.543 170.861 15.801 170.861 19.289 C 170.861 23.098 170.513 24.391 169.267 25.443 C 167.957 26.529 166.26 26.824 161.168 26.824 C 156.034 26.824 154.337 26.529 153.029 25.443 C 151.76 24.391 151.432 23.099 151.432 19.082 C 151.432 15.834 151.842 14.516 153.212 13.519 C 154.48 12.582 156.484 12.257 161.146 12.257 C 165.851 12.257 167.814 12.58 169.103 13.519 M 156.566 19.642 C 156.566 21.487 156.79 22.102 157.731 22.484 C 158.366 22.776 159.53 22.923 161.166 22.923 C 165.072 22.923 165.727 22.423 165.727 19.492 C 165.727 17.618 165.44 16.945 164.479 16.567 C 163.845 16.303 162.619 16.154 161.166 16.154 C 157.261 16.154 156.566 16.681 156.566 19.642" style="fill-opacity: 1; fill: rgb(255, 255, 255);" bx:origin="-7.795 -0.841"/>
  <path id="path4350" d="M 191.333 26.468 L 186.506 26.468 L 186.506 24.651 L 186.239 24.651 C 185.258 26.322 183.889 26.823 180.167 26.823 C 176.463 26.823 174.686 26.44 173.499 25.357 C 172.373 24.302 172.027 22.892 172.027 19.436 C 172.027 15.918 172.579 14.251 174.03 13.287 C 175.277 12.463 176.689 12.232 180.226 12.232 C 183.826 12.232 185.012 12.699 185.994 14.459 L 186.199 14.459 L 186.199 6.926 L 191.331 6.926 L 191.331 26.468 L 191.333 26.468 Z M 177.159 19.378 C 177.159 22.422 177.732 22.892 181.598 22.892 C 183.48 22.892 184.87 22.66 185.463 22.249 C 186.036 21.864 186.239 21.13 186.239 19.521 C 186.239 16.656 185.565 16.125 181.905 16.125 C 177.856 16.125 177.159 16.596 177.159 19.378" style="fill-opacity: 1; fill: rgb(255, 255, 255);" bx:origin="-8.91 -0.348"/>
  <path id="path4352" d="M 209.923 13.519 C 211.314 14.543 211.702 15.801 211.702 19.289 C 211.702 23.098 211.355 24.391 210.107 25.443 C 208.797 26.529 207.081 26.824 202.008 26.824 C 196.875 26.824 195.177 26.529 193.867 25.443 C 192.58 24.391 192.274 23.099 192.274 19.082 C 192.274 15.834 192.683 14.516 194.032 13.519 C 195.321 12.582 197.325 12.257 201.989 12.257 C 206.692 12.257 208.655 12.58 209.923 13.519 M 197.406 19.642 C 197.406 21.487 197.632 22.102 198.573 22.484 C 199.186 22.776 200.351 22.923 202.008 22.923 C 205.892 22.923 206.568 22.423 206.568 19.492 C 206.568 17.618 206.282 16.945 205.321 16.567 C 204.687 16.303 203.46 16.154 202.008 16.154 C 198.102 16.154 197.406 16.681 197.406 19.642" style="fill-opacity: 1; fill: rgb(255, 255, 255);" bx:origin="-9.897 -0.841"/>
  <path id="path4354" d="M 217.592 12.612 L 217.592 14.69 L 217.859 14.69 C 218.799 12.93 220.252 12.257 223.135 12.257 C 227.266 12.257 228.657 13.665 228.657 17.825 L 228.657 18.762 L 223.83 18.762 C 223.83 16.709 223.237 16.154 221.131 16.154 C 219.965 16.154 219.004 16.507 218.513 17.151 C 218.021 17.825 217.879 18.586 217.879 20.726 L 217.879 26.468 L 212.745 26.468 L 212.745 12.612 L 217.592 12.612 Z" style="fill-opacity: 1; fill: rgb(255, 255, 255);" bx:origin="-13.37 -0.863"/>
  <path id="path4356" d="M 247.962 22.045 C 247.573 25.884 245.692 26.823 238.349 26.823 C 234.383 26.823 232.5 26.468 231.252 25.532 C 229.903 24.507 229.514 23.125 229.514 19.581 C 229.514 15.861 229.901 14.483 231.355 13.461 C 232.704 12.524 234.402 12.232 238.88 12.232 C 243.503 12.232 245.139 12.524 246.386 13.546 C 247.593 14.572 248.065 16.125 248.065 19.26 C 248.065 19.436 248.065 20.078 248.044 20.663 L 234.627 20.663 C 234.627 22.072 234.792 22.538 235.282 22.923 C 235.834 23.333 236.898 23.511 238.758 23.511 C 242.03 23.511 242.643 23.276 242.849 22.046 L 247.962 22.045 L 247.962 22.045 Z M 242.911 17.825 C 242.869 16.74 242.809 16.478 242.501 16.154 C 242.03 15.654 240.989 15.451 238.964 15.451 C 235.508 15.451 234.69 15.891 234.628 17.825 L 242.911 17.825 Z" style="fill-opacity: 1; fill: rgb(255, 255, 255);" bx:origin="-12.373 -0.838"/>
  <path d="M 254.52 23.647 L 254.52 15.184 L 255.831 14.809 L 255.831 23.647 L 254.52 23.647 Z M 261.015 23.823 C 260.491 23.823 260.01 23.707 259.572 23.476 C 259.137 23.248 258.793 22.917 258.542 22.482 C 258.292 22.051 258.166 21.547 258.166 20.971 C 258.166 20.565 258.228 20.165 258.352 19.773 C 258.476 19.377 258.738 18.81 259.138 18.069 C 259.54 17.329 260.181 16.227 261.06 14.763 L 262.172 15.418 C 261.418 16.571 260.819 17.536 260.378 18.316 C 260.348 18.371 260.318 18.426 260.287 18.479 C 260.254 18.534 260.227 18.573 260.204 18.595 C 260.329 18.479 260.494 18.385 260.701 18.316 C 260.91 18.246 261.15 18.211 261.42 18.211 C 261.93 18.211 262.382 18.334 262.776 18.579 C 263.168 18.824 263.469 19.151 263.682 19.56 C 263.894 19.969 264 20.412 264 20.888 C 264 21.497 263.873 22.023 263.619 22.466 C 263.366 22.911 263.013 23.248 262.561 23.476 C 262.109 23.707 261.594 23.823 261.015 23.823 Z M 261.098 22.679 C 261.583 22.679 261.966 22.523 262.247 22.211 C 262.528 21.899 262.669 21.497 262.669 21.005 C 262.669 20.49 262.524 20.083 262.234 19.785 C 261.945 19.485 261.577 19.334 261.131 19.334 C 260.637 19.334 260.242 19.486 259.944 19.79 C 259.646 20.093 259.497 20.506 259.497 21.03 C 259.497 21.506 259.65 21.899 259.956 22.211 C 260.26 22.523 260.64 22.679 261.098 22.679 Z" style="fill: rgb(255, 255, 255); white-space: pre;"/>
</svg>

<svg xmlns="http://www.w3.org/2000/svg" viewBox="0 0 264 39"><path d="M25.16 11.12h16.1l-7.05 7.42h-9.05zm-.01 16.76h16.1l-7.05-7.42h-9.06zM24.81.77v9.34a10 10 0 0 0-5.5-1.53q-2.88 0-5.35 1.47-2.46 1.45-3.89 4a11 11 0 0 0-1.42 5.4 10.74 10.74 0 0 0 16.16 9.34v9.4q-2.67.81-5.5.81-5.16 0-9.63-2.63a19.5 19.5 0 0 1-7.07-7.15Q0 24.72 0 19.46q0-3.9 1.51-7.5A19.5 19.5 0 0 1 11.87 1.5Q15.35 0 19.32 0q2.75 0 5.49.77M67.66 20.9c-.08 2.32-.36 3.32-1.26 4.23-1.31 1.34-3 1.7-8.4 1.7-4.2 0-5.97-.3-7.33-1.3-1.34-.93-1.77-2.43-1.77-6.1 0-3.33.4-4.8 1.62-5.8 1.3-1.08 3.1-1.4 7.74-1.4 4.56 0 6.56.35 7.87 1.43 1.1.88 1.47 1.97 1.55 4.57h-5.2c-.18-1.57-1.2-2.1-4.21-2.1-3.57 0-4.24.55-4.24 3.45 0 1.82.3 2.52 1.22 2.9.6.27 1.71.41 3.07.41 3.02 0 3.9-.4 4.12-1.99zm18.74-7.38c1.39 1.02 1.78 2.28 1.78 5.77 0 3.8-.35 5.1-1.6 6.15-1.3 1.09-3.03 1.38-8.1 1.38-5.13 0-6.85-.3-8.14-1.38-1.29-1.05-1.61-2.34-1.61-6.36 0-3.25.4-4.56 1.78-5.56 1.26-.94 3.27-1.26 7.95-1.26 4.69 0 6.67.32 7.94 1.26m-12.54 6.12c0 1.85.25 2.46 1.17 2.84q.96.45 3.45.44c3.89 0 4.56-.5 4.56-3.43 0-1.87-.3-2.54-1.25-2.92a10 10 0 0 0-3.3-.42c-3.93 0-4.63.53-4.63 3.5m20.19-7.04v2.08h.26c.76-1.67 2.5-2.43 5.54-2.43 3.32 0 5.14.85 6.24 2.9.88-2.08 2.56-2.9 5.91-2.9 2.84 0 4.54.53 5.73 1.79 1.18 1.22 1.45 2.37 1.45 5.94v6.48h-5.13v-6.48c-.04-2.31-.1-2.57-.6-3.07-.5-.53-1.39-.77-2.88-.77-1.55 0-2.52.27-3.05.88-.6.65-.75 1.47-.75 3.72v5.72h-5.14v-6.48c0-2.16-.06-2.55-.55-3.07-.47-.53-1.37-.77-2.84-.77-1.56 0-2.56.27-3.13.85-.6.59-.76 1.47-.76 3.75v5.72h-5.13V12.6zm31.16 0v2.08h.25c.76-1.67 2.5-2.43 5.54-2.43 3.31 0 5.13.85 6.24 2.9.88-2.08 2.56-2.9 5.93-2.9 2.84 0 4.52.53 5.7 1.79 1.19 1.22 1.46 2.37 1.46 5.94v6.48h-5.14v-6.48c-.02-2.31-.08-2.57-.57-3.07-.53-.53-1.39-.77-2.9-.77-1.54 0-2.5.27-3.05.88-.6.65-.76 1.47-.76 3.72v5.72h-5.13v-6.48c0-2.16-.06-2.55-.55-3.07-.47-.53-1.37-.77-2.84-.77q-2.3-.01-3.13.85c-.6.59-.76 1.47-.76 3.75v5.72h-5.13V12.6zm43.89.91c1.4 1.02 1.76 2.28 1.76 5.77 0 3.8-.35 5.1-1.6 6.15-1.3 1.09-3 1.38-8.1 1.38-5.13 0-6.82-.3-8.13-1.38-1.27-1.05-1.6-2.34-1.6-6.36 0-3.25.41-4.56 1.78-5.56 1.27-.94 3.27-1.26 7.94-1.26 4.7 0 6.66.32 7.95 1.26m-12.53 6.12c0 1.85.22 2.46 1.16 2.84q.97.45 3.44.44c3.9 0 4.56-.5 4.56-3.43 0-1.87-.29-2.54-1.25-2.92a10 10 0 0 0-3.31-.42c-3.9 0-4.6.53-4.6 3.5m34.76 6.82h-4.82v-1.82h-.27c-.98 1.67-2.35 2.17-6.07 2.17-3.7 0-5.48-.38-6.67-1.46-1.13-1.06-1.47-2.47-1.47-5.92 0-3.52.55-5.19 2-6.15 1.25-.83 2.66-1.06 6.2-1.06 3.6 0 4.78.47 5.76 2.23h.2V6.93h5.14zm-14.17-7.1c0 3.05.57 3.52 4.44 3.52 1.88 0 3.27-.23 3.86-.64.58-.39.78-1.12.78-2.73 0-2.86-.68-3.4-4.34-3.4-4.04 0-4.74.48-4.74 3.26m32.76-5.86c1.4 1.02 1.78 2.28 1.78 5.77 0 3.8-.34 5.1-1.6 6.15-1.3 1.09-3.02 1.38-8.1 1.38-5.12 0-6.82-.3-8.13-1.38-1.29-1.05-1.6-2.34-1.6-6.36 0-3.25.41-4.56 1.76-5.56 1.3-.94 3.3-1.26 7.96-1.26 4.7 0 6.66.32 7.93 1.26m-12.51 6.12c0 1.85.22 2.46 1.16 2.84q.94.45 3.44.44c3.88 0 4.56-.5 4.56-3.43 0-1.87-.29-2.54-1.25-2.92a10 10 0 0 0-3.31-.42c-3.9 0-4.6.53-4.6 3.5m20.19-7.04v2.08h.26c.94-1.76 2.4-2.43 5.27-2.43 4.14 0 5.53 1.4 5.53 5.57v.93h-4.83c0-2.05-.6-2.6-2.7-2.6-1.16 0-2.13.35-2.62 1-.49.66-.63 1.43-.63 3.57v5.74h-5.13V12.6zm30.36 9.44c-.39 3.83-2.27 4.77-9.61 4.77-3.97 0-5.85-.35-7.1-1.29-1.35-1.02-1.74-2.4-1.74-5.95 0-3.72.4-5.1 1.84-6.12 1.35-.94 3.05-1.23 7.53-1.23 4.62 0 6.26.3 7.5 1.32 1.21 1.02 1.69 2.57 1.69 5.71 0 .18 0 .82-.03 1.4h-13.41c0 1.41.16 1.88.65 2.26.55.41 1.62.6 3.48.6 3.27 0 3.88-.24 4.09-1.47zm-5.05-4.23c-.04-1.08-.1-1.34-.4-1.67-.48-.5-1.52-.7-3.55-.7-3.45 0-4.27.44-4.33 2.38z" style="fill-opacity:1;fill:#fff"/><path d="M254.52 23.65v-8.47l1.31-.37v8.84zm6.5.17q-.8 0-1.45-.34a2.5 2.5 0 0 1-1.03-1 3 3 0 0 1-.37-1.5q0-.62.18-1.2.2-.6.79-1.71t1.92-3.3l1.11.65a55 55 0 0 0-1.97 3.17q.2-.16.5-.27.31-.1.72-.1a2.5 2.5 0 0 1 2.26 1.34q.32.6.32 1.33 0 .9-.38 1.58-.37.66-1.06 1-.68.36-1.55.35m.08-1.14q.73 0 1.15-.47t.42-1.2q0-.78-.44-1.23-.43-.45-1.1-.45-.75 0-1.19.46-.44.45-.44 1.24 0 .72.46 1.18.45.47 1.14.47" style="fill:#fff;white-space:pre"/></svg>
